icons/svgs/location-exclamation-solid.svg

<svg width="24" height="24" viewBox="0 0 24 24" fill="none" xmlns="http://www.w3.org/2000/svg">
<path d="M13.3984 21.5312C12.9297 22.1172 12.0312 22.1172 11.5625 21.5312C9.57031 18.9922 5 12.9375 5 9.5C5 5.35938 8.35938 2 12.5 2C16.6406 2 20 5.35938 20 9.5C20 12.9375 15.4297 18.9922 13.3984 21.5312ZM12.5 5.75C11.9531 5.75 11.5625 6.17969 11.5625 6.6875V11.0625C11.5625 11.6094 11.9531 12 12.5 12C13.0078 12 13.4375 11.6094 13.4375 11.0625V6.6875C13.4375 6.17969 13.0078 5.75 12.5 5.75ZM11.25 14.5C11.25 15.2031 11.7969 15.75 12.5 15.75C13.1641 15.75 13.75 15.2031 13.75 14.5C13.75 13.8359 13.1641 13.25 12.5 13.25C11.7969 13.25 11.25 13.8359 11.25 14.5Z" fill="black"/>
</svg>

<svg xmlns="http://www.w3.org/2000/svg" width="24" height="24" fill="currentColor" class="icon-location-exclamation-solid" viewBox="0 0 24 24">
  <mask id="a" width="15" height="20" x="5" y="2" maskUnits="userSpaceOnUse" style="mask-type:alpha">
    <path d="M13.398 21.531a1.178 1.178 0 0 1-1.835 0C9.57 18.992 5 12.938 5 9.5 5 5.36 8.36 2 12.5 2S20 5.36 20 9.5c0 3.438-4.57 9.492-6.602 12.031M12.5 5.75a.925.925 0 0 0-.937.938v4.375c0 .546.39.937.937.937.508 0 .938-.39.938-.937V6.687a.95.95 0 0 0-.938-.937m-1.25 8.75c0 .703.547 1.25 1.25 1.25.664 0 1.25-.547 1.25-1.25 0-.664-.586-1.25-1.25-1.25-.703 0-1.25.586-1.25 1.25"/>
  </mask>
  <g mask="url(#a)">
    <path d="M0 0h24v24H0z"/>
  </g>
</svg>
